docs/img/svg/photo.svg

<svg xmlns="http://www.w3.org/2000/svg" preserveAspectRatio="xMidYMid" width="45" height="38" viewBox="0 0 45 38"><defs><style>.cls-1{fill:#c1c1c1;fill-rule:evenodd}</style></defs><path d="M39.508 38H5.492C2.462 38 0 35.505 0 32.437V13.163C0 10.095 2.462 7.6 5.492 7.6h2.029c.23 0 .429-.158.487-.386l.971-3.952C9.458 1.341 11.152 0 13.104 0h18.791c1.952 0 3.647 1.341 4.124 3.26l.973 3.956a.505.505 0 0 0 .487.384h2.029c3.03 0 5.492 2.495 5.492 5.563v19.274C45 35.505 42.538 38 39.508 38zM22.5 9.5c-6.204 0-11.25 5.113-11.25 11.4s5.046 11.4 11.25 11.4 11.25-5.113 11.25-11.4S28.704 9.5 22.5 9.5zm15 3.8c-1.035 0-1.875.851-1.875 1.9s.84 1.9 1.875 1.9c1.035 0 1.875-.851 1.875-1.9s-.84-1.9-1.875-1.9zm-15 15.2c-4.136 0-7.5-3.409-7.5-7.6s3.364-7.6 7.5-7.6 7.5 3.409 7.5 7.6-3.364 7.6-7.5 7.6z" class="cls-1"/></svg>

<svg xmlns="http://www.w3.org/2000/svg" xmlns:xlink="http://www.w3.org/1999/xlink" preserveAspectRatio="xMidYMid" width="45" height="38" viewBox="0 0 45 38">
  <defs>
    <style>
      .cls-1 {
        fill: #c1c1c1;
        fill-rule: evenodd;
      }
    </style>
  </defs>
  <path d="M39.508,38.000 L5.492,38.000 C2.462,38.000 0.000,35.505 0.000,32.437 L0.000,13.163 C0.000,10.095 2.462,7.600 5.492,7.600 L7.521,7.600 C7.751,7.600 7.950,7.442 8.008,7.214 L8.979,3.262 C9.458,1.341 11.152,0.000 13.104,0.000 L31.895,0.000 C33.847,0.000 35.542,1.341 36.019,3.260 L36.992,7.216 C37.050,7.442 37.249,7.600 37.479,7.600 L39.508,7.600 C42.538,7.600 45.000,10.095 45.000,13.163 L45.000,32.437 C45.000,35.505 42.538,38.000 39.508,38.000 ZM22.500,9.500 C16.296,9.500 11.250,14.613 11.250,20.900 C11.250,27.187 16.296,32.300 22.500,32.300 C28.704,32.300 33.750,27.187 33.750,20.900 C33.750,14.613 28.704,9.500 22.500,9.500 ZM37.500,13.300 C36.465,13.300 35.625,14.151 35.625,15.200 C35.625,16.249 36.465,17.100 37.500,17.100 C38.535,17.100 39.375,16.249 39.375,15.200 C39.375,14.151 38.535,13.300 37.500,13.300 ZM22.500,28.500 C18.364,28.500 15.000,25.091 15.000,20.900 C15.000,16.709 18.364,13.300 22.500,13.300 C26.636,13.300 30.000,16.709 30.000,20.900 C30.000,25.091 26.636,28.500 22.500,28.500 Z" class="cls-1"/>
</svg>
